www/assets/icons/flutter_dash.svg

<svg width="24" height="24" viewBox="0 0 24 24" xmlns="http://www.w3.org/2000/svg" fill='currentColor'><path d="M11.07 11.4546C11.36 11.0646 11.88 10.8946 12.34 11.0846C12.51 11.1546 12.66 11.2646 12.77 11.4146C12.99 11.6946 13.02 12.0046 12.99 12.2646C12.94 12.5946 12.74 12.8946 12.45 13.0546C12.45 13.0546 7.58 16.0046 7.38 15.7446C7.18 15.4846 11.07 11.4546 11.07 11.4546ZM22 9.75464C22 12.2546 21 12.7546 20.5 12.7546C20.27 12.7546 20.06 12.6546 19.88 12.4946C19.4 15.8146 17.52 17.8046 14.55 18.4846C14.66 18.9246 15.03 19.2546 15.5 19.2546H16.08C16.3 19.2546 16.49 19.4046 16.56 19.6146C16.73 20.1346 17.22 20.6346 17.58 20.9346C17.83 21.1446 17.82 21.5246 17.55 21.7146C17.21 21.9546 16.65 22.2046 15.76 22.2446C15.58 22.2546 15.41 22.1746 15.31 22.0246C15.18 21.8246 15 21.4646 15 21.0146C15 20.7146 15.04 20.4446 15.09 20.2146C14.31 20.0546 13.7 19.4346 13.54 18.6546C13.05 18.7146 12.54 18.7546 12 18.7546C11.12 18.7546 10.3 18.6646 9.55 18.5046C9.53 18.5846 9.5 18.6646 9.5 18.7546C9.5 19.3046 9.95 19.7546 10.5 19.7546H11.08C11.3 19.7546 11.49 19.9046 11.56 20.1146C11.73 20.6346 12.22 21.1346 12.58 21.4346C12.83 21.6446 12.82 22.0246 12.55 22.2146C12.21 22.4546 11.65 22.7046 10.76 22.7446C10.58 22.7546 10.41 22.6746 10.31 22.5246C10.18 22.3246 10 21.9646 10 21.5146C10 21.2146 10.04 20.9446 10.09 20.7146C9.19 20.5246 8.5 19.7146 8.5 18.7546C8.5 18.5746 8.53 18.3946 8.58 18.2246C6.12 17.3646 4.55 15.4446 4.12 12.4846C3.94 12.6546 3.74 12.7546 3.5 12.7546C3 12.7546 2 12.2546 2 9.75464C2 7.48464 3.7 5.25464 5 5.25464C5.43 5.25464 5.49 5.74464 5.5 6.10464C6.78 4.32464 8.76 3.08464 11.05 2.81464C11.25 1.85464 12.13 1.25464 13 1.25464V2.25464C13 2.25464 13.33 1.75464 14 1.75464C14.67 1.75464 15 2.25464 15 2.25464C14.51 2.25464 14.15 2.60464 14.04 3.02464C15.86 3.50464 17.43 4.61464 18.5 6.10464C18.51 5.74464 18.57 5.25464 19 5.25464C20.3 5.25464 22 7.48464 22 9.75464ZM5 10.7546C5 11.5646 5.1 12.2846 5.25 12.9646C5.43 12.2746 5.71 11.6346 6.08 11.0446C5.87 10.5746 5.74 10.0546 5.74 9.50464C5.75 7.43464 7.43 5.75464 9.5 5.75464C10.46 5.75464 11.34 6.12464 12 6.72464C12.66 6.12464 13.54 5.75464 14.5 5.75464C16.57 5.75464 18.25 7.43464 18.25 9.50464C18.25 10.0546 18.13 10.5746 17.91 11.0446C18.28 11.6346 18.57 12.2846 18.75 12.9846C18.9 12.3046 19 11.5746 19 10.7546C19 6.89464 15.86 3.75464 12 3.75464C8.14 3.75464 5 6.89464 5 10.7546ZM17.98 15.0446C17.98 14.9446 18 14.8546 18 14.7546C18 13.7446 17.74 12.8046 17.3 11.9746C16.61 12.7546 15.62 13.2546 14.5 13.2546C14.23 13.2546 13.96 13.2246 13.71 13.1646C13.85 12.9346 13.94 12.6746 13.98 12.3946C13.99 12.3246 13.99 12.2646 14 12.2046C14.17 12.2346 14.33 12.2546 14.5 12.2546C16.02 12.2546 17.25 11.0246 17.25 9.50464C17.25 7.98464 16.02 6.75464 14.5 6.75464C13.83 6.75464 13.18 7.00464 12.67 7.47464L12 8.07464L11.33 7.47464C10.82 7.00464 10.17 6.75464 9.5 6.75464C7.98 6.75464 6.75 7.98464 6.75 9.50464C6.75 10.8446 7.71 11.9646 8.98 12.2046L8.22 13.0346C7.62 12.8146 7.1 12.4446 6.69 11.9846C6.26 12.8146 6 13.7546 6 14.7546C6 14.8346 6.01 14.9046 6.01 14.9946C7.13 16.8146 9.14 17.7546 12 17.7546C14.88 17.7546 16.88 16.8446 17.98 15.0446ZM16 9.50464C16 10.4746 15.33 11.2546 14.5 11.2546C13.67 11.2546 13 10.4746 13 9.50464C13 8.53464 13.67 7.75464 14.5 7.75464C15.33 7.75464 16 8.53464 16 9.50464ZM15.25 8.63464C15.25 8.42464 15.08 8.25464 14.87 8.25464C14.66 8.25464 14.5 8.42464 14.5 8.63464C14.5 8.84464 14.67 9.01464 14.88 9.01464C15.09 9.01464 15.25 8.83464 15.25 8.63464ZM11 9.50464C11 10.4746 10.33 11.2546 9.5 11.2546C8.67 11.2546 8 10.4746 8 9.50464C8 8.53464 8.67 7.75464 9.5 7.75464C10.33 7.75464 11 8.53464 11 9.50464ZM10.25 8.63464C10.25 8.42464 10.08 8.25464 9.87 8.25464C9.66 8.25464 9.5 8.42464 9.5 8.63464C9.5 8.84464 9.67 9.01464 9.88 9.01464C10.09 9.01464 10.25 8.83464 10.25 8.63464Z"/></svg>

<svg xmlns="http://www.w3.org/2000/svg" width="24" height="24" viewBox="0 0 24 24" fill='currentColor'><path d="M11.07 11.455c.29-.39.81-.56 1.27-.37.17.07.32.18.43.33.22.28.25.59.22.85-.05.33-.25.63-.54.79 0 0-4.87 2.95-5.07 2.69s3.69-4.29 3.69-4.29M22 9.755c0 2.5-1 3-1.5 3-.23 0-.44-.1-.62-.26-.48 3.32-2.36 5.31-5.33 5.99.11.44.48.77.95.77h.58c.22 0 .41.15.48.36.17.52.66 1.02 1.02 1.32.25.21.24.59-.03.78-.34.24-.9.49-1.79.53a.5.5 0 0 1-.45-.22c-.13-.2-.31-.56-.31-1.01 0-.3.04-.57.09-.8-.78-.16-1.39-.78-1.55-1.56-.49.06-1 .1-1.54.1-.88 0-1.7-.09-2.45-.25-.02.08-.05.16-.05.25 0 .55.45 1 1 1h.58c.22 0 .41.15.48.36.17.52.66 1.02 1.02 1.32.25.21.24.59-.03.78-.34.24-.9.49-1.79.53a.5.5 0 0 1-.45-.22c-.13-.2-.31-.56-.31-1.01 0-.3.04-.57.09-.8-.9-.19-1.59-1-1.59-1.96 0-.18.03-.36.08-.53-2.46-.86-4.03-2.78-4.46-5.74-.18.17-.38.27-.62.27-.5 0-1.5-.5-1.5-3 0-2.27 1.7-4.5 3-4.5.43 0 .49.49.5.85a8 8 0 0 1 5.55-3.29c.2-.96 1.08-1.56 1.95-1.56v1s.33-.5 1-.5 1 .5 1 .5c-.49 0-.85.35-.96.77 1.82.48 3.39 1.59 4.46 3.08.01-.36.07-.85.5-.85 1.3 0 3 2.23 3 4.5m-17 1c0 .81.1 1.53.25 2.21.18-.69.46-1.33.83-1.92a3.8 3.8 0 0 1-.34-1.54 3.766 3.766 0 0 1 3.76-3.75c.96 0 1.84.37 2.5.97.66-.6 1.54-.97 2.5-.97 2.07 0 3.75 1.68 3.75 3.75 0 .55-.12 1.07-.34 1.54.37.59.66 1.24.84 1.94.15-.68.25-1.41.25-2.23 0-3.86-3.14-7-7-7s-7 3.14-7 7m12.98 4.29c0-.1.02-.19.02-.29 0-1.01-.26-1.95-.7-2.78-.69.78-1.68 1.28-2.8 1.28-.27 0-.54-.03-.79-.09.14-.23.23-.49.27-.77.01-.07.01-.13.02-.19.17.03.33.05.5.05 1.52 0 2.75-1.23 2.75-2.75s-1.23-2.75-2.75-2.75c-.67 0-1.32.25-1.83.72l-.67.6-.67-.6c-.51-.47-1.16-.72-1.83-.72-1.52 0-2.75 1.23-2.75 2.75 0 1.34.96 2.46 2.23 2.7l-.76.83c-.6-.22-1.12-.59-1.53-1.05a6 6 0 0 0-.69 2.77c0 .08.01.15.01.24 1.12 1.82 3.13 2.76 5.99 2.76 2.88 0 4.88-.91 5.98-2.71M16 9.505c0 .97-.67 1.75-1.5 1.75s-1.5-.78-1.5-1.75.67-1.75 1.5-1.75 1.5.78 1.5 1.75m-.75-.87a.38.38 0 0 0-.38-.38c-.21 0-.37.17-.37.38s.17.38.38.38.37-.18.37-.38m-4.25.87c0 .97-.67 1.75-1.5 1.75S8 10.475 8 9.505s.67-1.75 1.5-1.75 1.5.78 1.5 1.75m-.75-.87a.38.38 0 0 0-.38-.38c-.21 0-.37.17-.37.38s.17.38.38.38.37-.18.37-.38"/></svg>
